tools/download-figma-icons/icons/action/download.svg

<svg width="24" height="24" viewBox="0 0 24 24" fill="none" xmlns="http://www.w3.org/2000/svg">
<path fill-rule="evenodd" clip-rule="evenodd" d="M11.2573 16.9575L11.2566 16.9567L5.31135 11.0115C4.87185 10.572 4.87185 9.86025 5.31135 9.42075C5.75085 8.98125 6.4626 8.98125 6.9021 9.42075L10.9161 13.4347L10.8748 3.37875C10.8726 2.75775 11.3743 2.25225 11.9953 2.25H11.9998C12.6193 2.25 13.1226 2.751 13.1248 3.3705L13.1661 13.4565L17.0983 9.52425C17.5378 9.08475 18.2496 9.08475 18.6891 9.52425C19.1286 9.96375 19.1286 10.6755 18.6891 11.115L12.8518 16.9522C12.8512 16.9529 12.8506 16.9535 12.85 16.9546C12.8499 16.9548 12.8497 16.955 12.8496 16.9552L12.8473 16.9567C12.8431 16.961 12.8384 16.9645 12.8338 16.9679C12.8302 16.9706 12.8266 16.9733 12.8233 16.9762C12.7783 17.019 12.7311 17.0602 12.6786 17.0955C12.668 17.1024 12.6567 17.1081 12.6451 17.114C12.6378 17.1177 12.6304 17.1214 12.6231 17.1255C12.5788 17.1525 12.5346 17.1787 12.4858 17.199C12.4719 17.2048 12.4571 17.2091 12.4424 17.2133C12.4325 17.2161 12.4227 17.2189 12.4131 17.2222C12.4048 17.225 12.3965 17.2278 12.3883 17.2306C12.3517 17.2431 12.3151 17.2555 12.2766 17.2635C12.2356 17.2716 12.1934 17.2742 12.1516 17.2768C12.1468 17.2771 12.1419 17.2774 12.1371 17.2777C12.1268 17.2786 12.1167 17.28 12.1066 17.2814C12.0902 17.2837 12.0737 17.286 12.0561 17.286H12.0523C11.9766 17.286 11.9023 17.2785 11.8296 17.2635C11.7894 17.2553 11.7512 17.2424 11.7135 17.2296C11.7062 17.2271 11.6989 17.2247 11.6916 17.2222C11.6817 17.2189 11.6717 17.2161 11.6618 17.2133C11.6475 17.2094 11.6333 17.2055 11.6196 17.1997C11.5686 17.1787 11.5213 17.1502 11.4741 17.1217C11.4674 17.1177 11.4601 17.1141 11.4529 17.1105C11.444 17.1061 11.4351 17.1016 11.4268 17.0962C11.3661 17.0557 11.3091 17.0085 11.2573 16.9575ZM4.875 19.4997H19.125C19.7467 19.4997 20.25 20.0037 20.25 20.6247C20.25 21.2457 19.7467 21.7497 19.125 21.7497H4.875C4.25325 21.7497 3.75 21.2457 3.75 20.6247C3.75 20.0037 4.25325 19.4997 4.875 19.4997Z" fill="black"/>
</svg>

<svg xmlns="http://www.w3.org/2000/svg" width="24" height="24" fill="none" viewBox="0 0 24 24"><path fill="currentColor" fill-rule="evenodd" d="M11.257 16.958v-.001L5.31 11.01a1.124 1.124 0 1 1 1.591-1.59l4.014 4.014-.041-10.056a1.125 1.125 0 0 1 1.12-1.129H12c.62 0 1.123.501 1.125 1.12l.041 10.087 3.932-3.933a1.124 1.124 0 1 1 1.591 1.591l-5.837 5.837-.002.003-.003.002-.013.01-.01.01a1 1 0 0 1-.145.119l-.034.018-.022.011a1 1 0 0 1-.137.074l-.044.014-.029.01-.025.008a1 1 0 0 1-.111.032c-.041.009-.084.011-.125.014h-.015l-.03.004-.05.005h-.005a1 1 0 0 1-.339-.056l-.021-.008-.03-.009-.042-.013a1 1 0 0 1-.146-.078l-.021-.012-.026-.014a1 1 0 0 1-.17-.139M4.875 19.5h14.25a1.125 1.125 0 1 1 0 2.25H4.875a1.125 1.125 0 1 1 0-2.25" clip-rule="evenodd"/></svg>
